pix_core/f/flash.svg

<svg fill="none" preserveAspectRatio="xMinYMid meet" viewBox="0 0 24 24" xmlns="http://www.w3.org/2000/svg"><g fill="#fff"><path clip-rule="evenodd" d="m4.5 5c0-1.38071 1.11929-2.5 2.5-2.5h6.1716c.663 0 1.2989.26339 1.7677.73223l3.8285 3.82843c.4688.46884.7322 1.10473.7322 1.76777v10.17157c0 1.3807-1.1193 2.5-2.5 2.5h-10c-1.38071 0-2.5-1.1193-2.5-2.5 0-.2761.22386-.5.5-.5s.5.2239.5.5c0 .8284.67157 1.5 1.5 1.5h10c.8284 0 1.5-.6716 1.5-1.5v-10c0-.27614-.2239-.5-.5-.5h-3c-.8284 0-1.5-.67157-1.5-1.5v-3c0-.27614-.2239-.5-.5-.5h-6c-.82843 0-1.5.67157-1.5 1.5v6c0 .2761-.22386.5-.5.5s-.5-.2239-.5-.5zm10 2v-2.79289l3.2929 3.29289h-2.7929c-.2761 0-.5-.22386-.5-.5z" fill-rule="evenodd"/><path d="m3.28076 12.7343c0-.0553.04477-.1.1-.1h2.7832c.05523 0 .1.0447.1.1v.6885c0 .0552-.04477.1-.1.1h-1.80429v.9337h1.59922c.05523 0 .1.0448.1.1v.6856c0 .0552-.04477.1-.1.1h-1.59922v1.6578c0 .0552-.04477.1-.1.1h-.87891c-.05523 0-.1-.0448-.1-.1z"/><path d="m6.87373 12.7343c0-.0553.04477-.1.1-.1h.87891c.05523 0 .1.0447.1.1v3.4801h1.76328c.05523 0 .1.0447.1.1v.6855c0 .0552-.04477.1-.1.1h-2.74219c-.05523 0-.1-.0448-.1-.1z"/></g></svg>

<svg viewBox="0 0 24 24" fill="none" xmlns="http://www.w3.org/2000/svg" preserveAspectRatio="xMinYMid meet">
<path fill-rule="evenodd" clip-rule="evenodd" d="M4.5 5C4.5 3.61929 5.61929 2.5 7 2.5H13.1716C13.8346 2.5 14.4705 2.76339 14.9393 3.23223L18.7678 7.06066C19.2366 7.5295 19.5 8.16539 19.5 8.82843V19C19.5 20.3807 18.3807 21.5 17 21.5H7C5.61929 21.5 4.5 20.3807 4.5 19C4.5 18.7239 4.72386 18.5 5 18.5C5.27614 18.5 5.5 18.7239 5.5 19C5.5 19.8284 6.17157 20.5 7 20.5H17C17.8284 20.5 18.5 19.8284 18.5 19V9C18.5 8.72386 18.2761 8.5 18 8.5H15C14.1716 8.5 13.5 7.82843 13.5 7V4C13.5 3.72386 13.2761 3.5 13 3.5H7C6.17157 3.5 5.5 4.17157 5.5 5V11C5.5 11.2761 5.27614 11.5 5 11.5C4.72386 11.5 4.5 11.2761 4.5 11V5ZM14.5 7V4.20711L17.7929 7.5H15C14.7239 7.5 14.5 7.27614 14.5 7Z" fill="#fff"/>
<path fill="#fff" d="M3.28076 12.7343C3.28076 12.679 3.32553 12.6343 3.38076 12.6343H6.16396C6.21919 12.6343 6.26396 12.679 6.26396 12.7343V13.4228C6.26396 13.478 6.21919 13.5228 6.16396 13.5228H4.35967V14.4565H5.95889C6.01412 14.4565 6.05889 14.5013 6.05889 14.5565V15.2421C6.05889 15.2973 6.01412 15.3421 5.95889 15.3421H4.35967V16.9999C4.35967 17.0551 4.3149 17.0999 4.25967 17.0999H3.38076C3.32553 17.0999 3.28076 17.0551 3.28076 16.9999V12.7343Z" fill="#fff"/>
<path fill="#fff" d="M6.87373 12.7343C6.87373 12.679 6.9185 12.6343 6.97373 12.6343H7.85264C7.90787 12.6343 7.95264 12.679 7.95264 12.7343V16.2144H9.71592C9.77115 16.2144 9.81592 16.2591 9.81592 16.3144V16.9999C9.81592 17.0551 9.77115 17.0999 9.71592 17.0999H6.97373C6.9185 17.0999 6.87373 17.0551 6.87373 16.9999V12.7343Z" fill="#fff"/>
</svg>
